F[ERK1
CUT[ES WOLLT EIN MAEGDLEIN SEHR FRUEH AUFSTEHN]
REG[Europa, Mitteleuropa, Deutschland]
KEY[E0096A 16  F 3/4]
MEL[-5_1_3_  2_321_355443  2__0_
    543_5_  54434_432_4_  43323_
    543_2_  1__0_
    543_5_  54434_432_4_  43323_
    543_2_  1__0_ //] >>
FCT[erzaehlendes Volks - Lied, Sage, Liebe, Leid, Tod
    Ballade ?]
